X: 8
T: The Coalminer's
R: reel
M: 4/4
L: 1/8
K: Gmaj
|:DG G2 DGBG|dGBG AGEG|DG G2 BG (3Bcd|gedB A2GE|
DG G2 DGBG|dGBG AGEG|DG G2 BG (3Bcd|1 gedB G2GE:|2 gedB G2 Bd||
|:g3e d2ge|d2BG AGEG|g3e dega|bagb a2ga|
bg g2 ageg|d2BG AGEG|DG G2 BG (3Bcd|1 gedB G2 (3def:|2 gedB G2GE||


Tune 1617	Setting 28203

